X: 8220
T: Copenhagen, The
R: jig
M: 6/8
K: Gmajor
D|"G"G2 d BGD|"D7"cAG FED|"G" G2d BGd|"D7"cAF "G"G2D|G2d BGD|
"D"cAG FED|"Am" fed cAd|1 "D7" cAF "G" G2:|2 "D7" cAF "G" GBc|
|:"D7"f2 f fed|cAB cef|"G" g2 g gfg|agf "Am" ABc|"D7" f2 f fed|
cAB ceg|"Am" fed cAd|1 "D7" cAF "G"GBc:|2 "D7"cAF "G"G2 d|
|:"G"g2 g bag|"D7" fed cAF|"G"G2d BGD|"D7" cAG FED|
"G"GBG "Am"AcA|"D7" def "G"gfg|"Am" fed cAd|1 "D7"cAF "G"G2 d:|2 "D7" cAF "G"G2 E|
|:"D7"D2 c cBA|cBA FGA|"G" G2g gfe|dcB AGE|"D7" D2c cBA|
cBA FGA|"Am" fed cAd|1 "D7"cAF "G"G2 E:|2 "D7" cAF "G"G3||

